X: 196
T:Guslyy Wonie's Jig
% Nottingham Music Database
S:Trad, arr Phil oowe
M:6/8
K:G
A/2G/2|"G"G2G G2G|"Bm"GAB "D7"FAE|"G7"D2A G2:|
P:B
e|"E"eec "A7"cBA|"D"Add "G"GAB|"G"GP||
K:G
"G"g2g ggd|BcB egd|e3 edd|"D"d2e "A7"e2c|\
"D7/d#"ff -"G"dBG::[2"Em"ede "A(d+"dcB|"Am"cBA AGA|"D"ded "A7"cBA|"Am"cdc "A"c2:|


